public/cloud-icons/azure/management/recovery-services-restore-point.svg

<?xml version="1.0" encoding="UTF-8" standalone="no"?>
<!-- Generated by Microsoft Visio, SVG Export Recovery Services Restore Point.svg Page-1 -->

<svg
   xmlns:dc="http://purl.org/dc/elements/1.1/"
   xmlns:cc="http://creativecommons.org/ns#"
   xmlns:rdf="http://www.w3.org/1999/02/22-rdf-syntax-ns#"
   xmlns:svg="http://www.w3.org/2000/svg"
   xmlns="http://www.w3.org/2000/svg"
   xmlns:sodipodi="http://sodipodi.sourceforge.net/DTD/sodipodi-0.dtd"
   xmlns:inkscape="http://www.inkscape.org/namespaces/inkscape"
   width="0.80467165in"
   height="0.78741747in"
   viewBox="0 0 57.936578 56.694369"
   xml:space="preserve"
   class="st7"
   version="1.1"
   id="svg60"
   sodipodi:docname="Recovery Services Restore Point.svg"
   style="font-size:12px;overflow:visible;color-interpolation-filters:sRGB;fill:none;fill-rule:evenodd;stroke-linecap:square;stroke-miterlimit:3"
   inkscape:version="0.92.5 (2060ec1f9f, 2020-04-08)"><metadata
   id="metadata64"><rdf:RDF><cc:Work
       rdf:about=""><dc:format>image/svg+xml</dc:format><dc:type
         rdf:resource="http://purl.org/dc/dcmitype/StillImage" /></cc:Work></rdf:RDF></metadata><sodipodi:namedview
   pagecolor="#ffffff"
   bordercolor="#666666"
   borderopacity="1"
   objecttolerance="10"
   gridtolerance="10"
   guidetolerance="10"
   inkscape:pageopacity="0"
   inkscape:pageshadow="2"
   inkscape:window-width="640"
   inkscape:window-height="480"
   id="namedview62"
   showgrid="false"
   inkscape:zoom="1.4193119"
   inkscape:cx="38.637255"
   inkscape:cy="37.792016"
   inkscape:window-x="0"
   inkscape:window-y="0"
   inkscape:window-maximized="0"
   inkscape:current-layer="svg60" />
	<style
   type="text/css"
   id="style2">
	<![CDATA[
		.st1 {fill:#86d633;stroke:none;stroke-linecap:butt;stroke-width:34}
		.st2 {fill:url(#grad0-8);stroke:none;stroke-linecap:butt;stroke-width:34}
		.st3 {fill:url(#grad0-12);stroke:none;stroke-linecap:butt;stroke-width:34}
		.st4 {fill:#c3f1ff;stroke:none;stroke-linecap:butt;stroke-width:34}
		.st5 {fill:url(#grad0-18);stroke:none;stroke-linecap:butt;stroke-width:34}
		.st6 {fill:#ffffff;stroke:none;stroke-linecap:butt;stroke-width:34}
		.st7 {fill:none;fill-rule:evenodd;font-size:12px;overflow:visible;stroke-linecap:square;stroke-miterlimit:3}
	]]>
	</style>

	<defs
   id="Patterns_And_Gradients">
		<linearGradient
   id="grad0-8"
   x1="-2.0762931"
   y1="74.699935"
   x2="49.5424"
   y2="74.699935"
   gradientTransform="scale(1.0016083,0.9983943)"
   gradientUnits="userSpaceOnUse">
			<stop
   offset="0"
   stop-color="#0078d4"
   stop-opacity="1"
   id="stop4" />
			<stop
   offset="1"
   stop-color="#5ea0ef"
   stop-opacity="1"
   id="stop6" />
		</linearGradient>
		<linearGradient
   id="grad0-12"
   x1="0"
   y1="79.516154"
   x2="14.899342"
   y2="79.516154"
   gradientTransform="scale(0.7570804,1.3208637)"
   gradientUnits="userSpaceOnUse">
			<stop
   offset="0"
   stop-color="#32bedd"
   stop-opacity="1"
   id="stop9" />
			<stop
   offset="1"
   stop-color="#9cebff"
   stop-opacity="1"
   id="stop11" />
		</linearGradient>
		<linearGradient
   id="grad0-18"
   x1="0"
   y1="79.516154"
   x2="14.899342"
   y2="79.516154"
   gradientTransform="scale(0.7570804,1.3208637)"
   gradientUnits="userSpaceOnUse">
			<stop
   offset="0"
   stop-color="#32bedd"
   stop-opacity="1"
   id="stop14" />
			<stop
   offset="1"
   stop-color="#9cebff"
   stop-opacity="1"
   id="stop16" />
		</linearGradient>
	</defs>
	<g
   id="g58"
   transform="translate(-34.001006,-34.0043)">
		<title
   id="title20">Page-1</title>
		<g
   id="group13120-1"
   transform="translate(34.9088,-34.0157)">
			<title
   id="title22">Recovery Services Restore Point.13120</title>
			<g
   id="group13121-2">
				<title
   id="title24">Sheet.13121</title>
				<g
   id="shape13122-3">
					<title
   id="title26">Sheet.13122</title>
					<path
   d="m 25.09,68.02 a 26.6759,26.5908 -180 0 0 -9.56,48.3 l 0.91,-2.3 a 0.503715,0.502108 0 0 1 0.874505,-0.12553 L 23.91,122.38 a 0.521205,0.519543 0 0 1 -0.08395,0.72178 0.503715,0.502108 0 0 1 -0.248361,0.10809 L 12.99,124.71 a 0.510711,0.509082 0 0 1 -0.573676,-0.44283 0.524703,0.52303 0 0 1 0.03148,-0.25803 L 13.79,120.61 A 31.0379,30.9389 0 0 1 0,101.92 27.1446,27.0581 0 0 1 18.97,68.91 26.3541,26.27 0 0 1 25.09,68.02 Z"
   class="st1"
   id="path28"
   inkscape:connector-curvature="0"
   style="fill:#86d633;stroke:none;stroke-width:34;stroke-linecap:butt" />
				</g>
				<g
   id="shape13123-5"
   transform="translate(7.4067,-5.97648)">
					<title
   id="title31">Sheet.13123</title>
					<path
   d="m 23.78,74.58 a 25.8364,25.754 -180 0 0 -18.68,43.57 24.766,24.687 -180 0 0 2.41,2.1 l 0.29,-0.74 a 1.84696,1.84106 0 0 1 1.75,-1.16 1.83996,1.83409 0 0 1 1.41,0.71 l 4.39,5.65 a 25.8504,25.7679 -180 1 0 8.43,-50.13 z"
   class="st2"
   id="path33"
   inkscape:connector-curvature="0"
   style="fill:url(#grad0-8);stroke:none;stroke-width:34;stroke-linecap:butt" />
				</g>
				<g
   id="shape13124-9"
   transform="translate(31.1849,-17.6052)">
					<title
   id="title36">Sheet.13124</title>
					<path
   d="m 11.28,105.03 v 13.08 L 0,124.71 v -13.12 z"
   class="st3"
   id="path38"
   inkscape:connector-curvature="0"
   style="fill:url(#grad0-12);stroke:none;stroke-width:34;stroke-linecap:butt" />
				</g>
				<g
   id="shape13125-13"
   transform="translate(19.9072,-30.6844)">
					<title
   id="title41">Sheet.13125</title>
					<path
   d="M 22.56,118.11 11.32,124.71 0,118.11 11.32,111.55 Z"
   class="st4"
   id="path43"
   inkscape:connector-curvature="0"
   style="fill:#c3f1ff;stroke:none;stroke-width:34;stroke-linecap:butt" />
				</g>
				<g
   id="shape13126-15"
   transform="translate(19.9072,-17.6052)">
					<title
   id="title46">Sheet.13126</title>
					<path
   d="m 11.28,111.63 v 13.08 L 0,118.11 v -13.08 z"
   class="st5"
   id="path48"
   inkscape:connector-curvature="0"
   style="fill:url(#grad0-18);stroke:none;stroke-width:34;stroke-linecap:butt" />
				</g>
				<g
   id="shape13127-19"
   transform="translate(13.7857,-14.202)">
					<title
   id="title51">Sheet.13127</title>
					<path
   d="M 9.91,92.47 H 1.92 A 1.91692,1.9108 -180 0 0 0,94.38 v 7.99 a 0.958458,0.955401 -180 0 0 0.958458,0.95889 L 1.6,103.33 a 0.958458,0.955401 -180 0 0 0.958458,-0.95889 L 2.56,94.99 h 7.35 a 0.958458,0.955401 -180 0 0 0.930474,-0.955401 L 10.84,93.42 A 0.958458,0.955401 -180 0 0 9.909526,92.464599 Z m 0,29.52 H 2.53 v -7.33 A 0.958458,0.955401 -180 0 0 1.571542,113.7046 L 0.96,113.7 a 0.958458,0.955401 -180 0 0 -0.958458,0.9554 L 0,122.77 a 1.91692,1.9108 -180 0 0 1.89,1.94 h 8.02 a 0.986442,0.983296 -180 0 0 0.940968,-1.03211 L 10.84,123.58 v -0.64 A 0.958458,0.955401 -180 0 0 9.909526,121.9846 Z M 32.74,92.56 h -7.88 a 0.958458,0.955401 -180 0 0 -0.958458,0.955401 L 23.9,94.12 a 0.958458,0.955401 -180 0 0 0.867509,1.03909 0.884999,0.882176 -180 0 0 0.09095,0.0035 L 32.21,95.16 v 7.27 a 0.958458,0.955401 -180 0 0 0.958458,0.9554 L 33.84,103.39 a 0.958458,0.955401 -180 0 0 0.958458,-0.9554 L 34.8,94.47 a 1.91692,1.9108 -180 0 0 -1.91,-1.92 2.16877,2.16186 -180 0 0 -0.15,0.01 z m 0.98,21.2 h -0.6 a 0.958458,0.955401 -180 0 0 -0.958458,0.9554 L 32.16,122.07 h -7.3 a 0.958458,0.955401 -180 0 0 -0.958458,0.9554 L 23.9,123.67 a 0.958458,0.955401 -180 0 0 0.958458,0.9554 L 32.85,124.62 a 1.9484,1.94218 -180 0 0 1.95,-1.91 v -7.99 a 0.958458,0.955401 -180 0 0 -1.07739,-0.9554 z"
   class="st6"
   id="path53"
   inkscape:connector-curvature="0"
   style="fill:#ffffff;stroke:none;stroke-width:34;stroke-linecap:butt" />
				</g>
			</g>
		</g>
	</g>
</svg>

<svg xmlns="http://www.w3.org/2000/svg" xml:space="preserve" width="77.248" height="75.592" style="font-size:12px;overflow:visible;color-interpolation-filters:sRGB;fill-rule:evenodd;stroke-linecap:square;stroke-miterlimit:3" viewBox="0 0 57.937 56.694"><defs><linearGradient id="a" x1="-2.076" x2="49.542" y1="74.7" y2="74.7" gradientTransform="scale(1.0016 .9984)" gradientUnits="userSpaceOnUse"><stop offset="0" stop-color="#0078d4"/><stop offset="1" stop-color="#5ea0ef"/></linearGradient><linearGradient id="b" x1="0" x2="14.899" y1="79.516" y2="79.516" gradientTransform="scale(.75708 1.32086)" gradientUnits="userSpaceOnUse"><stop offset="0" stop-color="#32bedd"/><stop offset="1" stop-color="#9cebff"/></linearGradient><linearGradient id="c" x1="0" x2="14.899" y1="79.516" y2="79.516" gradientTransform="scale(.75708 1.32086)" gradientUnits="userSpaceOnUse"><stop offset="0" stop-color="#32bedd"/><stop offset="1" stop-color="#9cebff"/></linearGradient></defs><g transform="translate(-34.001 -34.004)"><title>Page-1</title><g transform="translate(34.909 -34.016)"><title>Recovery Services Restore Point.13120</title><title>Sheet.13121</title><title>Sheet.13122</title><path d="M25.09 68.02a26.676 26.59-180 0 0-9.56 48.3l.91-2.3a.504.502 0 0 1 .875-.126l6.595 8.486a.521.52 0 0 1-.084.722.504.502 0 0 1-.248.108l-10.588 1.5a.51.51 0 0 1-.574-.443.525.523 0 0 1 .032-.258l1.342-3.399A31.038 30.939 0 0 1 0 101.92a27.145 27.058 0 0 1 18.97-33.01 26.354 26.27 0 0 1 6.12-.89" style="fill:#86d633;stroke:none;stroke-width:34;stroke-linecap:butt"/><g transform="translate(7.407 -5.976)"><title>Sheet.13123</title><path d="M23.78 74.58A25.836 25.754-180 0 0 5.1 118.15a24.766 24.687-180 0 0 2.41 2.1l.29-.74a1.847 1.841 0 0 1 1.75-1.16 1.84 1.834 0 0 1 1.41.71l4.39 5.65a25.85 25.768-180 1 0 8.43-50.13" style="fill:url(#a);stroke:none;stroke-width:34;stroke-linecap:butt"/></g><g transform="translate(31.185 -17.605)"><title>Sheet.13124</title><path d="M11.28 105.03v13.08L0 124.71v-13.12z" style="fill:url(#b);stroke:none;stroke-width:34;stroke-linecap:butt"/></g><g transform="translate(19.907 -30.684)"><title>Sheet.13125</title><path d="m22.56 118.11-11.24 6.6L0 118.11l11.32-6.56Z" style="fill:#c3f1ff;stroke:none;stroke-width:34;stroke-linecap:butt"/></g><g transform="translate(19.907 -17.605)"><title>Sheet.13126</title><path d="M11.28 111.63v13.08L0 118.11v-13.08z" style="fill:url(#c);stroke:none;stroke-width:34;stroke-linecap:butt"/></g><g transform="translate(13.786 -14.202)"><title>Sheet.13127</title><path d="M9.91 92.47H1.92A1.917 1.91-180 0 0 0 94.38v7.99a.958.955-180 0 0 .958.959l.642.001a.958.955-180 0 0 .958-.959l.002-7.381h7.35a.958.955-180 0 0 .93-.955v-.615a.958.955-180 0 0-.93-.955Zm0 29.52H2.53v-7.33a.958.955-180 0 0-.958-.955L.96 113.7a.958.955-180 0 0-.958.955L0 122.77a1.917 1.91-180 0 0 1.89 1.94h8.02a.986.983-180 0 0 .941-1.032l-.011-.098v-.64a.958.955-180 0 0-.93-.955Zm22.83-29.43h-7.88a.958.955-180 0 0-.958.955l-.002.605a.958.955-180 0 0 .868 1.04.885.882-180 0 0 .09.003l7.352-.003v7.27a.958.955-180 0 0 .958.955l.672.005a.958.955-180 0 0 .958-.955l.002-7.965a1.917 1.91-180 0 0-1.91-1.92 2.169 2.162-180 0 0-.15.01m.98 21.2h-.6a.958.955-180 0 0-.958.955l-.002 7.355h-7.3a.958.955-180 0 0-.958.955l-.002.645a.958.955-180 0 0 .958.955l7.992-.005a1.948 1.942-180 0 0 1.95-1.91v-7.99a.958.955-180 0 0-1.077-.955z" style="fill:#fff;stroke:none;stroke-width:34;stroke-linecap:butt"/></g></g></g></svg>
